X:1
T:McIntyre's Fancy
C:John Brady, Arr. LN
L:1/8
M:6/8
K:G
R:jig
   cde AGE     | GAB      A3      | eag edc     |  eAB AGE    |
   c2  e   dcA | !turn!G3 Gcd     | eAa ged     |1 cAG A2  B :|2 cAG Aeg ||
|: aAa ged     | {g}      ecg edc | GAc GAc     |  dec deg    |
   aeg dec     | A3       GEG     | c2  e   ged |1 cAG Aeg   :|2 cAG A3   |]
